!!!COM: Music21
!!!OTL: march_Silver--The
!!!OMV: march_Silver--The
**kern
*clefG2
*k[f#c#]
*D:
*M4/4
=1
8ff#L
8ggJ
=
4aa
8ff#L
8ddJ
4a
8ddL
8ff#J
=
8aaL
8ggJ
8ggL
8ff#J
4gg
8eeL
8ff#J
=
4gg
8eeL
8cc#J
8aL
8bJ
8cc#L
8eeJ
=
8bbL
8aaJ
8aaL
8gg#XJ
4aa
8ff#L
8ggnJ
=
4aa
8ff#L
8ddJ
4a
8ddL
8ff#J
!!linebreak:original
=
8aaL
8ggJ
8ggL
8ff#J
4gg
8eeL
8ff#J
=
4gg
8eeL
8cc#J
8aL
8bJ
8cc#L
8eeJ
=
4dd
8ddL
8cc#J
4dd
4ryy
=||
*M4/4
8ff#L
8ggJ
=
4aa
8ff#L
8ddJ
4a
8ddL
8ff#J
=
8aaL
8ggJ
8ggL
8ff#J
4gg
8eeL
8ff#J
!!linebreak:original
=
4gg
8eeL
8cc#J
8aL
8bJ
8cc#L
8eeJ
=
8bbL
8aaJ
8aaL
8gg#XJ
4aa
8ff#L
8ggnJ
=
4aa
8ff#L
8ddJ
4a
8ddL
8ff#J
=
8aaL
8ggJ
8ggL
8ff#J
4gg
8eeL
8ff#J
=
4gg
8eeL
8cc#J
8aL
8bJ
8cc#L
8eeJ
=
4dd
8ddL
8cc#J
4dd
4ryy
!!linebreak:original
=||
4b
2.ryy
=
8aL
8ff#J
8aL
8ff#J
8aL
8ff#J
8.ff#L
16ggJk
=
8ff#L
8eeJ
8eeL
8ff#J
4ee
8eL
8f#J
=
8gL
8eeJ
8gL
8eeJ
8gL
8eeJ
8.eeL
16ff#Jk
=
8eeL
8ddJ
8ddL
8eeJ
4dd
4b
=
8aL
8ff#J
8aL
8ff#J
8aL
8ff#J
8ff#L
8ggJ
!!linebreak:original
=
4aa
8ggL
8ff#J
4b
8cc#L
8eeJ
=
8ff#L
8eeJ
8cc#L
8bJ
8aL
8bJ
8cc#L
8eeJ
=
4dd
8ddL
8cc#J
4dd
4ryy
=||
4b
2.ryy
=
8aL
8ff#J
8aL
8ff#J
8aL
8ff#J
8.ff#L
16ggJk
=
8ff#L
8eeJ
8eeL
8ff#J
4ee
8eL
8f#J
!!linebreak:original
=
8gL
8eeJ
8gL
8eeJ
8gL
8eeJ
8.eeL
16ff#Jk
=
8eeL
8ddJ
8ddL
8eeJ
4dd
4b
=
8aL
8ff#J
8aL
8ff#J
8aL
8ff#J
8ff#L
8ggJ
=
4aa
8ggL
8ff#J
4b
8cc#L
8eeJ
=
8ff#L
8eeJ
8cc#L
8bJ
8aL
8bJ
8cc#L
8eeJ
=
4dd
8ddL
8cc#J
4dd
4ryy
=||
*-
